client/svg/volume-mute.svg

<svg xmlns="http://www.w3.org/2000/svg" width="34" height="32" viewBox="0 0 34 32"><path d="M12.542 2.458c.802-.802 1.458-.53 1.458.604v25.875c0 1.134-.656 1.406-1.458.604l-7.542-7.542h-5v-12h5l7.542-7.542zm17.458 16.89v2.652h-2.652l-3.348-3.348-3.348 3.348h-2.652v-2.652l3.348-3.348-3.348-3.348v-2.652h2.652l3.348 3.348 3.348-3.348h2.652v2.652l-3.348 3.348z"/></svg>

<svg xmlns="http://www.w3.org/2000/svg" width="34" height="32" viewBox="0 0 34 32"><path d="M12.542 2.458c.802-.802 1.458-.53 1.458.604v25.875c0 1.134-.656 1.406-1.458.604L5 22H0V10h5l7.542-7.543zM30 19.348V22h-2.652L24 18.652 20.652 22H18v-2.652L21.348 16 18 12.652V10h2.652L24 13.348 27.348 10H30v2.652L26.652 16z"/></svg>
